img/cab-section__03.svg

<svg width="38" height="30" viewBox="0 0 38 30" fill="none" xmlns="http://www.w3.org/2000/svg">
<path d="M31.0595 14.0936C27.074 10.2245 21.9634 8.0353 16.6131 7.89271V0.696195C16.6131 0.474265 16.4817 0.273343 16.2784 0.184392C16.0753 0.0953672 15.8384 0.135075 15.6754 0.285635L0.179764 14.5893C0.0651859 14.6951 0 14.8439 0 14.9998C0 15.1558 0.0651859 15.3046 0.179764 15.4104L15.6754 29.714C15.7806 29.8112 15.9166 29.8622 16.0544 29.8622C16.1301 29.8622 16.2064 29.8469 16.2784 29.8153C16.4817 29.7263 16.613 29.5254 16.613 29.3035V22.1144H18.7362C26.3153 22.1144 32.8121 24.6433 37.0297 29.2352C37.1907 29.4105 37.4452 29.4645 37.6635 29.3699C37.8819 29.2752 38.0162 29.0526 37.9984 28.8152C37.5783 23.2579 35.1141 18.0297 31.0595 14.0936ZM18.7363 20.9969H16.0543C15.7458 20.9969 15.4956 21.2471 15.4956 21.5557V28.0273L1.38246 14.9998L15.4956 1.97235V8.444C15.4956 8.75257 15.7458 9.00273 16.0543 9.00273C21.3144 9.00273 26.3669 11.0955 30.2811 14.8953C33.7548 18.2675 36.0018 22.6345 36.7069 27.3282C32.2919 23.2331 25.98 20.9969 18.7363 20.9969Z" fill="white"/>
<path d="M10.3121 8.48305L5.54827 12.8805C5.3215 13.0898 5.30735 13.4433 5.51669 13.67C5.62687 13.7893 5.77691 13.8498 5.92739 13.8498C6.06291 13.8498 6.19879 13.8007 6.30622 13.7016L11.0701 9.30417C11.2968 9.09483 11.3109 8.74134 11.1017 8.51464C10.8924 8.28794 10.5389 8.27379 10.3121 8.48305Z" fill="white"/>
<path d="M29.344 20.2993C27.2502 19.5807 25.0042 19.0852 22.6682 18.8267C22.3611 18.7929 22.0853 19.0139 22.0514 19.3205C22.0174 19.6272 22.2386 19.9034 22.5452 19.9373C24.7996 20.1868 26.965 20.6642 28.9812 21.3562C29.0412 21.3769 29.1024 21.3866 29.1626 21.3866C29.3946 21.3866 29.6114 21.2409 29.691 21.0091C29.7912 20.7173 29.6359 20.3995 29.344 20.2993Z" fill="white"/>
<path d="M13.2899 5.73059L12.0987 6.83018C11.8719 7.03952 11.8578 7.39301 12.0671 7.61971C12.1773 7.73906 12.3273 7.79947 12.4778 7.79947C12.6133 7.79947 12.7492 7.75045 12.8566 7.6513L14.0478 6.5517C14.2746 6.34236 14.2888 5.98887 14.0794 5.76217C13.8702 5.53547 13.5167 5.52139 13.2899 5.73059Z" fill="white"/>
</svg>

<svg width="38" height="30" fill="none" xmlns="http://www.w3.org/2000/svg"><path d="M31.06 14.094c-3.986-3.87-9.097-6.059-14.447-6.201V.696a.559.559 0 00-.938-.41L.18 14.589a.559.559 0 000 .821l15.495 14.304a.558.558 0 00.938-.41v-7.19h2.123c7.58 0 14.076 2.53 18.294 7.121a.559.559 0 00.968-.42c-.42-5.557-2.884-10.785-6.938-14.721zm-12.324 6.903h-2.682a.559.559 0 00-.558.559v6.471L1.382 15 15.496 1.972v6.472c0 .309.25.559.558.559 5.26 0 10.313 2.092 14.227 5.892 3.474 3.372 5.72 7.74 6.426 12.433-4.415-4.095-10.727-6.331-17.97-6.331z" fill="#fff"/><path d="M10.312 8.483L5.548 12.88a.559.559 0 10.758.822l4.764-4.398a.559.559 0 00-.758-.82zM29.344 20.3a31.152 31.152 0 00-6.676-1.473.559.559 0 10-.123 1.11c2.255.25 4.42.727 6.436 1.42a.555.555 0 00.71-.348.559.559 0 00-.347-.71zM13.29 5.73l-1.191 1.1a.559.559 0 10.758.821l1.19-1.1a.559.559 0 10-.757-.82z" fill="#fff"/></svg>
